X:1
T:Jigg, A
M:6/4
L:1/4
Q:3/4=80
S:D.Wright, Extraordinary Collection, London 1713
N:no tie at the close of the first strain
Z:Pete Stewart, 2004 <www.hornpipemusic.co.uk>
K:G
b/a/ | g>fgdgB | c>dcAag | f(d2d2)b/a/ |
g/f/g/a/gde/f/g | BgBAaf | gG2G2 :|
B/c/ | d>edd/c/B/A/G | c/B/c/d/cAag | f(d2d2)e/f/ |
g/f/g/a/ggdc | Bg/f/gafd | g(G2G2) |]

